assets/illustrations/default/time-1.svg

<svg xmlns="http://www.w3.org/2000/svg" width="1080" height="1081" fill="none"><path fill="#072F73" d="M568.791 847.501c234.748 0 425.049-189.605 425.049-423.494S803.539.514 568.791.514c-234.749 0-425.05 189.604-425.05 423.493s190.301 423.494 425.05 423.494"/><path fill="#0096FA" d="M299.97 1080.51c82.899 0 150.101-66.95 150.101-149.548 0-82.595-67.202-149.552-150.101-149.552s-150.101 66.957-150.101 149.552c0 82.598 67.202 149.548 150.101 149.548"/><path fill="#C5D9FB" d="M189.841 811.391c38.484 0 69.681-31.083 69.681-69.426s-31.197-69.426-69.681-69.426-69.681 31.083-69.681 69.426 31.197 69.426 69.681 69.426"/><path fill="url(#a)" d="m939.33 890.728-43.454-154.35c-9.089-32.257-34.434-57.419-66.833-66.362L655.678 622.17c-18.065-4.978-24.169-27.437-11.079-40.817l124.214-126.936c23.672-24.193 32.783-59.041 23.966-91.659l-40.968-151.579-460.365 126.102 42.573 151.151c9.157 32.528 34.863 57.847 67.624 66.565l171.873 45.818c18.11 4.821 24.395 27.235 11.441 40.728L460.494 770.956c-23.265 24.193-32.128 58.726-23.378 91.074l41.849 154.8z"/><path fill="#1968F0" d="M757.141 168.781 265.128 303.532c-7.224 1.978-11.47 9.417-9.485 16.615l9.067 32.863c1.986 7.197 9.452 11.428 16.676 9.45l492.013-134.751c7.224-1.978 11.47-9.417 9.485-16.615l-9.067-32.863c-1.986-7.197-9.452-11.428-16.676-9.45M949.372 865.579 457.359 1000.33c-7.224 1.98-11.47 9.42-9.485 16.61l9.067 32.87c1.986 7.2 9.452 11.43 16.676 9.45L965.63 924.507c7.224-1.979 11.47-9.417 9.484-16.615l-9.066-32.863c-1.986-7.198-9.452-11.429-16.676-9.45M360.041 453.988l4.002 14.236c7.846 27.843 29.844 49.491 57.879 56.969l104.047 27.753 58.512 15.633c12.254 3.266 25.322-.316 34.162-9.349l55.528-56.811 61.926-63.276c20.258-20.702 28.058-50.526 20.507-78.436l-3.867-14.26c-2.441-9.033-11.779-14.349-20.845-11.871l-360.071 98.62c-9.044 2.478-14.357 11.826-11.825 20.814zM625.011 678.68l-20.076 35.167c-3.062 5.363-1.18 12.185 4.204 15.236l35.296 20.001c5.383 3.051 12.23 1.176 15.292-4.188l20.075-35.167c3.062-5.363 1.18-12.185-4.203-15.235l-35.296-20.002c-5.384-3.051-12.23-1.176-15.292 4.188"/><defs><linearGradient id="a" x1="602.15" x2="630.455" y1="266.188" y2="1005.43" gradientUnits="userSpaceOnUse"><stop stop-color="#fff"/><stop offset=".32" stop-color="#FCFDFE"/><stop offset=".55" stop-color="#F2F6FE"/><stop offset=".76" stop-color="#E2ECFD"/><stop offset=".95" stop-color="#CBDDFB"/><stop offset="1" stop-color="#C5D9FB"/></linearGradient></defs></svg>

<svg width="1080" height="1081" viewBox="0 0 1080 1081" fill="none" xmlns="http://www.w3.org/2000/svg">
<path d="M568.791 847.501C803.539 847.501 993.84 657.896 993.84 424.007C993.84 190.118 803.539 0.513672 568.791 0.513672C334.042 0.513672 143.741 190.118 143.741 424.007C143.741 657.896 334.042 847.501 568.791 847.501Z" fill="#072F73"/>
<path d="M299.97 1080.51C382.869 1080.51 450.071 1013.56 450.071 930.962C450.071 848.367 382.869 781.41 299.97 781.41C217.071 781.41 149.869 848.367 149.869 930.962C149.869 1013.56 217.071 1080.51 299.97 1080.51Z" fill="#0096FA"/>
<path d="M189.841 811.391C228.325 811.391 259.522 780.308 259.522 741.965C259.522 703.622 228.325 672.539 189.841 672.539C151.357 672.539 120.16 703.622 120.16 741.965C120.16 780.308 151.357 811.391 189.841 811.391Z" fill="#C5D9FB"/>
<path d="M939.33 890.728L895.876 736.378C886.787 704.121 861.442 678.959 829.043 670.016L655.678 622.17C637.613 617.192 631.509 594.733 644.599 581.353L768.813 454.417C792.485 430.224 801.596 395.376 792.779 362.758L751.811 211.179L291.446 337.281L334.019 488.432C343.176 520.96 368.882 546.279 401.643 554.997L573.516 600.815C591.626 605.636 597.911 628.05 584.957 641.543L460.494 770.956C437.229 795.149 428.366 829.682 437.116 862.03L478.965 1016.83L939.33 890.728Z" fill="url(#paint0_linear_18020_2489)"/>
<path d="M757.141 168.781L265.128 303.532C257.904 305.51 253.658 312.949 255.643 320.147L264.71 353.01C266.696 360.207 274.162 364.438 281.386 362.46L773.399 227.709C780.623 225.731 784.869 218.292 782.884 211.094L773.817 178.231C771.831 171.034 764.365 166.803 757.141 168.781Z" fill="#1968F0"/>
<path d="M949.372 865.579L457.359 1000.33C450.135 1002.31 445.889 1009.75 447.874 1016.94L456.941 1049.81C458.927 1057.01 466.393 1061.24 473.617 1059.26L965.63 924.507C972.854 922.528 977.1 915.09 975.114 907.892L966.048 875.029C964.062 867.831 956.596 863.6 949.372 865.579Z" fill="#1968F0"/>
<path d="M360.041 453.988L364.043 468.224C371.889 496.067 393.887 517.715 421.922 525.193L525.969 552.946L584.481 568.579C596.735 571.845 609.803 568.263 618.643 559.23L674.171 502.419L736.097 439.143C756.355 418.441 764.155 388.617 756.604 360.707L752.737 346.447C750.296 337.414 740.958 332.098 731.892 334.576L371.821 433.196C362.777 435.674 357.464 445.022 359.996 454.01L360.041 453.988Z" fill="#1968F0"/>
<path d="M625.011 678.68L604.935 713.847C601.873 719.21 603.755 726.032 609.139 729.083L644.435 749.084C649.818 752.135 656.665 750.26 659.727 744.896L679.802 709.729C682.864 704.366 680.982 697.544 675.599 694.494L640.303 674.492C634.919 671.441 628.073 673.316 625.011 678.68Z" fill="#1968F0"/>
<defs>
<linearGradient id="paint0_linear_18020_2489" x1="602.15" y1="266.188" x2="630.455" y2="1005.43" gradientUnits="userSpaceOnUse">
<stop stop-color="white"/>
<stop offset="0.32" stop-color="#FCFDFE"/>
<stop offset="0.55" stop-color="#F2F6FE"/>
<stop offset="0.76" stop-color="#E2ECFD"/>
<stop offset="0.95" stop-color="#CBDDFB"/>
<stop offset="1" stop-color="#C5D9FB"/>
</linearGradient>
</defs>
</svg>
